X:1
T:Belgorod
T:C Major                    Jacob French, 1789
T:Transcribed from  The New American Melody, 1789.
T:Isaac Watts, 1709 (Hymn 81, Book 2)             86. 86. (C. M.)
%%score [ 1 2 3 4 ]
L:1/8
Q:1/4=110
M:2/2
K:C
V:1 treble nm="Tr." snm="Tr."
V:2 treble nm="C." snm="C."
V:3 treble-8 nm="T." snm="T."
V:4 bass nm="B." snm="B."
V:1
"_1.   And   now   the   scales have  left      mine       eyes,    Now   I     be     –     gin    to          see:        O       the  curs'd  deeds    my     sins  have  done,  What   mur     –      derous  things  they   be!                Was" c4 | %1
 e6 d2 | c6 B2 | (c2 f2) (e2 d2) | e8 | c4 c2 B2 | A4 (d2 c2) | B8 | f8 | d2 c2 c2 B2 | c4 c4 | %11
 B4 e4 | (d3 e d2) c2 | (f2 e2) d4 | e8 |: z4 c4 | %16
"_1.  it   for  sins  that     I                    had        done  My  dearest    Lord    was  slain, When justice seized God's only Son,  And     put  his  soul       to         pain,  ____  And put his  soul __________  to     pain?" e2 c2 f2 d2 | %17
 (e2 c2) B4 | c4 e4 | e6 e2 | (c2 d2) B4 | c4 G4 | c2 c2 B2 c2 | d4 c4 | c6 fe | d2 g2 (f2 d2) | %26
 (e2 c2) (B2 A2- | A2) A2 G2 c2 | (B>cB>A G2) G2 | G8 :| %30
V:2
 E4 | G6 G2 | G6 G2 | (E2 A2) G4 | G8 | G4 G2 GF | E4 A4 | G8 | c8 | B2 G2 EF G2 | A4 G4 | G4 G4 | %12
 (^F3 G A2) G2 | A4 G4 | G8 |: z4 E4 | G2 E2 A2 GF | (E3 ^F G2) G2 | G4 A4 | G6 G2 | F4 E4 | %21
 E4 E4 | G2 G2 G2 c2 | B4 G4 | A6 c2 | B2 G2 (A2 G2) | (F2 E2) F4- | F2 F2 E2 E2 | D6 D2 | E8 :| %30
V:3
"_2.  For – give  my   guilt,   O     Prince    of             peace,   I'll  wound  my   God   no         more:   Hence  from  my     heart,    ye       sins,  be–gone,  For        Je     –        –    sus      I            a   –   dore.               Fur –" G4 | %1
 c6 d2 | e6 d2 | c4 B4 | c8 | e4 e2 d2 | c4 (f2 e2) | d8 | a8 | g2 e2 c2 de | f4 e4 | d4 c4 | %12
 (B2 A2 f2) e2 | (d2 c2) B4 | c8 |: z4 G4 | %16
"_2.  –nish  me,  Lord,  with  hea    –   venly  arms  From gra–ce's  ma  –  ga – zine,  And I'll proclaim e–ter –nal    war   With      eve– ry  dar  –   ling       sin, _____ With  eve– ry   dar        –         ling           sin." c2 G2 c2 B2 | %17
 c4 d4 | e4 c4 | B6 B2 | A4 ^G4 | A4 c4 | e2 e2 d2 c2 | g4 e4 | f6 a2 | g2 e2 d4 | c4 d4- | %27
 d2 c2 B2 A2 | G4 B4 | c8 :| %30
V:4
 C,4 | C,6 [G,,G,]2 | [C,C]6 [G,,G,]2 | ([A,,A,]2 [F,,F,]2) (([G,,G,]2 G,,2)) | C,8 | %5
 [C,C]4 [C,C]2 [G,,G,]2 | [A,,A,]4 D,4 | [G,,G,]8 | [F,,F,]8 | %9
 [G,,G,]2 [C,C][B,,B,] [A,,A,]2 [G,,G,]2 | [F,,F,]4 C,4 | G,4 C,4 | D,6 E,2 | F,4 G,4 | C,8 |: %15
 z4 C,4 | C,2 E,2 F,2 G,2 | A,4 G,4 | [C,C]4 [A,,A,]4 | E,6 E,2 | (F,2 D,2) E,4 | A,,4 C,4 | %22
 C,2 C,2 [G,,G,]2 [A,,A,]2 | [G,,G,]4 [C,C]4 | [F,,F,]6 [F,,F,]2 | %25
 [G,,G,]2 C,2 ([F,,F,]2 [G,,G,]2) | [A,,A,]4 D,4- | D,2 D,2 E,2 F,2 | G,4 G,,4 | C,8 :| %30

